X:1
T:Canon in D
T:Canon in D
T:Pachelbel
C:Pachelbel
%%score { 1 | 2 }
L:1/8
M:4/4
K:C
V:1 treble nm="Piano" snm="Pno."
V:2 bass 
V:1
"^Frase 1" !5!A8 | !5!G8 | !4!F8 | E8 | D8 | C8 | D8 | E8 | A8 | [EG]8 | [DF]8 | [CE]8 | D8 | C8 | %14
 D8 | E8 ||"^Frase 2" F4 A4 | c4 _B4 | A4 F4 | A4 G4 | F4 d4 | F4 c4 | _B4 d4 | c4 _B4 | A4 F4 | %25
 G4 A4 | F4 A4 | c4 c4 | d4 _B4 | c4 A4 | F4 F4 | G4 F2 E2 ||"^Frase 3" F2 E2 F2 z2 | z2 c2 G2 A2 | %34
 F2 F2 E2 D2 | E2 A2 c2 d2 | _B2 A2 G2 B2 | A2 G2 F2 E2 | D2 C2 z4 | z8 | F2 G2 A2 _B2 | %41
 c2 G2 c2 _B2 | A2 d2 c2 _B2 | c2 _B2 A2 G2 | F2 D2 D2 E2 | F2 E2 D2 C2 | z4 z2 D2 | C2 D2 C2 z2 || %48
"^Frase 4" c2 A_B c2 AB | cCDE FGA_B | A2 FG A2 z2 | z8 | z2 DC z4 | z4 z2 CD | z2 DC D2 EF | %55
 CDEF GA_Bc | A2 FG A2 GF | G2 FG AGFE | F2 DE F2 z2 | z4 z FEF | D2 FE D2 z2 | z4 CDEF | %62
 D2 FE F2 ED | EFAF EFDE | [CF]8 |] %65
V:2
 !2!F,8 | !5!C,8 | D,8 | !3!A,8 | _B,8 | F,8 | _B,8 | C8 | [F,A,]8 | [C,G,]8 | [D,A,]8 | A,8 | %12
 [F,_B,]8 | [F,A,]8 | [F,_B,]8 | [G,C]8 || [F,A,]8 | [C,G,]8 | [D,A,]8 | [E,A,]8 | [F,_B,]8 | %21
 [F,A,]8 | [F,_B,]8 | [G,C]8 | [F,A,]8 | [C,G,]8 | [D,A,]8 | [E,A,]8 | [F,_B,]8 | [F,A,]8 | %30
 [F,_B,]8 | [G,C]8 || [F,A,]6 F,2 | E,2 z2 z4 | [D,A,]8 | z8 | [F,_B,]8 | z8 | [F,_B,]4 B,2 A,2 | %39
 G,2 _B,2 A,2 G,2 | [F,A,]8 | z8 | [D,A,]8 | z8 | [F,_B,]8 | z8 | [F,_B,]2 A,2 G,2 z2 | %47
 z4 z2 _B,2 || [F,A,]8 | z8 | [D,A,]6 A,_B, | C2 C_B, CA,B,C | [F,_B,]2 z2 B,2 A,G, | %53
 A,G,F,G, A,_B, z2 | [F,_B,]8 | z8 | [F,A,]8 | z8 | [D,A,]6 F,G, | A,_B,A,G, A, z z2 | %60
 [F,B,]6 CB, | C_B,A,B, z4 | [F,_B,]8 | z8 | [F,A,]8 |] %65

